packages/tokens/icons/aiBrainStrikethrough/size32Px.svg

<svg viewBox="0 0 32 32" fill="none" xmlns="http://www.w3.org/2000/svg" width="1em" height="1em"><path d="M16 4.49997C16 4.49997 15 3.49994 12.5 3.49994C9.11689 3.47994 4.5 5.44488 4.5 14.8612C4.5 22.8142 10.5 28.4999 16 28.4999" stroke="currentColor" stroke-linecap="round" stroke-linejoin="round"/><path d="M15.9998 16H12.3998" stroke="currentColor" stroke-linecap="round" stroke-linejoin="round"/><path d="M5 13.4999H7.5" stroke="currentColor" stroke-linecap="round"/><path d="M5 18.4999H7.5" stroke="currentColor" stroke-linecap="round"/><path d="M11.5001 7.99991L12.2072 7.2928C12.3947 7.10527 12.5001 6.85091 12.5001 6.58569V3.99991" stroke="currentColor" stroke-linecap="square" stroke-linejoin="round"/><path d="M11.5 8.99991C11.5 9.82834 10.8284 10.4999 10 10.4999C9.17157 10.4999 8.5 9.82834 8.5 8.99991C8.5 8.17148 9.17157 7.49991 10 7.49991C10.8284 7.49991 11.5 8.17148 11.5 8.99991Z" stroke="currentColor" stroke-linecap="round" stroke-linejoin="round"/><path d="M12 22.4999C12 23.3283 11.3284 23.9999 10.5 23.9999" stroke="currentColor" stroke-linecap="round" stroke-linejoin="round"/><path d="M10.5 17.4999C11.3284 17.4999 12 16.8283 12 15.9999C12 15.1715 11.3284 14.4999 10.5 14.4999" stroke="currentColor" stroke-linecap="round" stroke-linejoin="round"/><path d="M12 23.9999L12.7071 24.707C12.8946 24.8946 13 25.1489 13 25.4142V27.4999" stroke="currentColor" stroke-linecap="square" stroke-linejoin="round"/><path d="M16.0001 4.49997L16.0001 28.5" stroke="currentColor" stroke-linecap="round"/><path d="M16 4.50003C16 4.50003 17 3.5 19.5 3.5C22.8831 3.48 27.5 5.44494 27.5 14.8612C27.5 22.8143 21.5 28.5 16 28.5" stroke="currentColor" stroke-linecap="round" stroke-linejoin="round"/><path d="M16.0002 16H19.6002" stroke="currentColor" stroke-linecap="round" stroke-linejoin="round"/><path d="M27 13.5H24.5" stroke="currentColor" stroke-linecap="round"/><path d="M27 18.5H24.5" stroke="currentColor" stroke-linecap="round"/><path d="M20.4999 7.99997L19.7928 7.29286C19.6053 7.10533 19.4999 6.85097 19.4999 6.58576V3.99997" stroke="currentColor" stroke-linecap="square" stroke-linejoin="round"/><path d="M19.5 22C19.5 22.8284 20.1716 23.5 21 23.5C21.8284 23.5 22.5 22.8284 22.5 22C22.5 21.1715 21.8284 20.5 21 20.5C20.1716 20.5 19.5 21.1715 19.5 22Z" stroke="currentColor" stroke-linecap="round" stroke-linejoin="round"/><path d="M20.5 8.99997C20.5 8.17154 21.1716 7.49997 22 7.49997" stroke="currentColor" stroke-linecap="round" stroke-linejoin="round"/><path d="M21.5 17.5C20.6716 17.5 20 16.8284 20 16C20 15.1715 20.6716 14.5 21.5 14.5" stroke="currentColor" stroke-linecap="round" stroke-linejoin="round"/><path d="M20 24L19.2929 24.7071C19.1054 24.8946 19 25.149 19 25.4142V27.5" stroke="currentColor" stroke-linecap="square" stroke-linejoin="round"/><path d="M15.9999 4.50003L15.9999 28.5" stroke="currentColor" stroke-linecap="round"/><path d="M28.0416 4L4 28.0416" stroke="currentColor" stroke-linecap="round"/></svg>

<svg xmlns="http://www.w3.org/2000/svg" fill="none" viewBox="0 0 32 32" width="1em" height="1em"><path stroke="currentColor" stroke-linecap="round" stroke-linejoin="round" d="M16 4.5s-1-1-3.5-1c-3.383-.02-8 1.945-8 11.361 0 7.953 6 13.639 11.5 13.639M16 16h-3.6"/><path stroke="currentColor" stroke-linecap="round" d="M5 13.5h2.5m-2.5 5h2.5"/><path stroke="currentColor" stroke-linecap="square" stroke-linejoin="round" d="m11.5 8 .707-.707a1 1 0 0 0 .293-.707V4"/><path stroke="currentColor" stroke-linecap="round" stroke-linejoin="round" d="M11.5 9a1.5 1.5 0 1 1-3 0 1.5 1.5 0 0 1 3 0Zm.5 13.5a1.5 1.5 0 0 1-1.5 1.5m0-6.5a1.5 1.5 0 0 0 0-3"/><path stroke="currentColor" stroke-linecap="square" stroke-linejoin="round" d="m12 24 .707.707a1 1 0 0 1 .293.707V27.5"/><path stroke="currentColor" stroke-linecap="round" d="M16 4.5v24"/><path stroke="currentColor" stroke-linecap="round" stroke-linejoin="round" d="M16 4.5s1-1 3.5-1c3.383-.02 8 1.945 8 11.361 0 7.953-6 13.639-11.5 13.639M16 16h3.6"/><path stroke="currentColor" stroke-linecap="round" d="M27 13.5h-2.5m2.5 5h-2.5"/><path stroke="currentColor" stroke-linecap="square" stroke-linejoin="round" d="m20.5 8-.707-.707a1 1 0 0 1-.293-.707V4"/><path stroke="currentColor" stroke-linecap="round" stroke-linejoin="round" d="M19.5 22a1.5 1.5 0 1 0 3 0 1.5 1.5 0 0 0-3 0Zm1-13A1.5 1.5 0 0 1 22 7.5m-.5 10a1.5 1.5 0 0 1 0-3"/><path stroke="currentColor" stroke-linecap="square" stroke-linejoin="round" d="m20 24-.707.707a1 1 0 0 0-.293.707V27.5"/><path stroke="currentColor" stroke-linecap="round" d="M16 4.5v24M28.042 4 4 28.042"/></svg>
